X:9003
T:I'll Tell Me Ma
R:Polka
C:Trad.
O:Ireland
Z:Paul Hardy's Session Tunebook 2015 (see www.paulhardy.net). Creative Commons cc by-nc-sa licenced.
M:2/2
L:1/4
Q:1/2=100
K:G
D/|"G" D G B>B|"C" c B "G" B>B|"D7" B A A>B|"G" A G G>D|D G B>B|"C" c B "G" B>B|"D7" B A A>B|"G" A G G2||
"G" d d "G7" d B|"Am" c c c A|"G" B B B G|"D7" A F E D|"G" d d "G7" d B|"C" c c c2|"G" B "D7" G/G/ A B|"G" A G G3/2|]

